X:1131
T:Bonny Kitty.
M:6/8
L:1/8
Q:3/8=100
N:bar 5 is printed |ggg g>a^b|
N:bar 20 has an alternate printed in small notes, |fac' f'ac'|
Z:Jack Campin * www.campin.me.uk * 2009
K:F
f/e/|fca    bge  |fcB     ABc |dBA  Gbg|(f3  e2)
e/f/|ggg    g>a=b|c'af    gec |Bdc =BAB| c2z z2
e/f/|ggg    gab  |c'af    gec |dBA  Gbg|(f3  e2)
c   |c'c'c' aaa  |fff     ddd |bbb  ggg| eee cHc
a/b/|c'af   gec  |f>ga/b/ c'af|dgf  ede| f3  f'ac'|d'gb c'ce|fAc F2|]
<end>
<start>
